X:1
T: Mount Battock
C:Alexander Walker
R:Strathspey
Q: 128
K:D
M:4/4
L:1/16
|:A,2|DD3 D3F E3D B,3E|DDD2 D3F A6 F2|G3A BAGF A3D F3D|B,3E DCB,A, D4-D2A,2|
DD3 D3F E3D B,3E|DDD2 D3F A6 F2|G3A BAGF A3D F3D|B,3E DCB,A, D4-D2g2|
fd3 A3d F3d E3c|G3e F3d e6 g2|fd3 A3d F3d E3C|B,3E C3A, D4-D2g2|
fd3 A3d F3d E3c|G3e F3d e6 g2|fa3 b3g f3a f2d2|B3e dcBA d4-d2:|
